X: 13475
T: Flower Of Magherally, The
R: reel
M: 4/4
K: Edorian
B2|g3g f4|e2ed B2ef|g2b2a3f|1 gfe6:|2 gfe3ga||
b2bbb2ag|a3aa2ga|b2e2e2dc|dee2 B4|
b2eee2fe|d2BBB2AG|A3Bd3e|f3e e4|

